X:1
T: Old Strathspey
P:Kerr's 3rd #157
R:Strathspey
Q: 128
K:F
M:4/4
L:1/16
c2|:f4 f3a ff3 f3a|f3a g3f ec3 c3e|ff3 f3a f3a g3a|bd3 g3e f6 c2:|
|:Ac3 cf3 Ac3 cf3|dB3 Bd3 c3A G3B|Ac3 cf3 dB3 Bd3|1c3B A3G FFF2 F2c2:|2c3B A3G FFF2 F2D2|
A4 FD3 A4 FD3|A3D DDD2 A4 Ad3|A4 FD3 A4 FD3|A3D DDD2 A4 Ad3|
AA3 FD3 AA3 FD3|A3D DDD2 A4 Ad3|AA3 FD3 AA3 FD3|d3A FGA2 FD3 D2c2|
|:f4 f3a ff3 f3a|f3a g3f ec3 c3e|ff3 f3a f3a g3a|1bd3 g3e f6 c2:|2bd3 g3e f6||
